icons/midnadark/apps/48/icq_protocol.svg

<svg xmlns="http://www.w3.org/2000/svg" viewBox="0 0 48 48"><defs><linearGradient y1="545.8" x2="0" y2="517.8" gradientUnits="userSpaceOnUse"><stop stop-color="#3889e9"/><stop offset="1" stop-color="#5ea5fb"/></linearGradient><linearGradient id="0" gradientUnits="userSpaceOnUse" y1="545.14" x2="0" y2="518.14"><stop stop-color="#30cf41"/><stop offset="1" stop-color="#47f383"/></linearGradient></defs><g transform="matrix(1.09312 0 0 1.09312-351.34-550.39)"><circle r="14" cy="531.8" cx="400.57" fill="url(#0)" transform="matrix(1.56825 0 0 1.56825-284.83-308.53)"/><g transform="matrix(1.82962 0 0 1.82962-275.05-470.52)" fill="#fff" fill-opacity=".849"><path d="m353.99 203.91c35.14-20.995 47.05-66.38 26.508-101.95-20.54-35.575-65.794-47.957-101.55-28.02-.61-40.933-33.961-73.934-75.04-73.934-41.08 0-74.43 33-75.04 73.937-35.754-19.94-81.01-7.557-101.55 28.02-20.539 35.574-8.636 80.958 26.511 101.95-35.15 20.995-47.05 66.38-26.51 101.95 20.54 35.576 65.796 47.958 101.55 28.02.607 40.936 33.96 73.938 75.04 73.936 41.08 0 74.43-33 75.04-73.936 35.754 19.939 81.01 7.557 101.55-28.02 20.54-35.576 8.635-80.96-26.51-101.95m-150.08 68.74c-37.966 0-68.74-30.777-68.74-68.74 0-37.967 30.778-68.74 68.74-68.74 37.965 0 68.74 30.777 68.74 68.74 0 37.967-30.778 68.74-68.74 68.74" transform="matrix(.03923 0 0 .03923 330 536.36)"/><circle cx="338" cy="544.36" r="1.5" fill-rule="evenodd"/></g></g></svg>

<?xml version="1.0" encoding="UTF-8" standalone="no"?>
<!-- Created with Inkscape (http://www.inkscape.org/) -->

<svg
   xmlns:dc="http://purl.org/dc/elements/1.1/"
   xmlns:cc="http://creativecommons.org/ns#"
   xmlns:rdf="http://www.w3.org/1999/02/22-rdf-syntax-ns#"
   xmlns:svg="http://www.w3.org/2000/svg"
   xmlns="http://www.w3.org/2000/svg"
   xmlns:xlink="http://www.w3.org/1999/xlink"
   xmlns:sodipodi="http://sodipodi.sourceforge.net/DTD/sodipodi-0.dtd"
   xmlns:inkscape="http://www.inkscape.org/namespaces/inkscape"
   width="48"
   height="48"
   id="svg5453"
   version="1.1"
   inkscape:version="0.91 r13725"
   sodipodi:docname="icq_protocol.svg">
  <defs
     id="defs5455">
    <linearGradient
       id="linearGradient4422">
      <stop
         style="stop-color:#30cf41;stop-opacity:1"
         offset="0"
         id="stop4424" />
      <stop
         style="stop-color:#47f383;stop-opacity:1"
         offset="1"
         id="stop4426" />
    </linearGradient>
    <linearGradient
       id="linearGradient4232">
      <stop
         id="stop4234-0"
         offset="0"
         style="stop-color:#3889e9;stop-opacity:1" />
      <stop
         id="stop4236"
         offset="1"
         style="stop-color:#5ea5fb;stop-opacity:1" />
    </linearGradient>
    <linearGradient
       inkscape:collect="always"
       xlink:href="#linearGradient4232"
       id="linearGradient3426"
       x1="399.57144"
       y1="545.79797"
       x2="399.57144"
       y2="517.79797"
       gradientUnits="userSpaceOnUse" />
    <linearGradient
       inkscape:collect="always"
       xlink:href="#linearGradient4422"
       id="linearGradient4181"
       gradientUnits="userSpaceOnUse"
       x1="399.9939"
       y1="545.13873"
       x2="399.9939"
       y2="518.13873" />
    <inkscape:perspective
       id="perspective4146"
       inkscape:persp3d-origin="12 : 8 : 1"
       inkscape:vp_z="24 : 12 : 1"
       inkscape:vp_y="0 : 1000 : 0"
       inkscape:vp_x="0 : 12 : 1"
       sodipodi:type="inkscape:persp3d" />
    <inkscape:perspective
       id="perspective4090"
       inkscape:persp3d-origin="12 : 8 : 1"
       inkscape:vp_z="24 : 12 : 1"
       inkscape:vp_y="0 : 1000 : 0"
       inkscape:vp_x="0 : 12 : 1"
       sodipodi:type="inkscape:persp3d" />
  </defs>
  <sodipodi:namedview
     id="base"
     pagecolor="#5a5a5a"
     bordercolor="#666666"
     borderopacity="1.0"
     inkscape:pageopacity="0"
     inkscape:pageshadow="2"
     inkscape:zoom="5.7151645"
     inkscape:cx="39.308718"
     inkscape:cy="20.949417"
     inkscape:document-units="px"
     inkscape:current-layer="g4471"
     showgrid="false"
     fit-margin-top="0"
     fit-margin-left="0"
     fit-margin-right="0"
     fit-margin-bottom="0"
     inkscape:window-width="1362"
     inkscape:window-height="625"
     inkscape:window-x="0"
     inkscape:window-y="37"
     inkscape:window-maximized="0"
     inkscape:showpageshadow="false"
     borderlayer="true"
     showguides="false"
     inkscape:snap-bbox="true"
     inkscape:bbox-paths="false"
     inkscape:bbox-nodes="true"
     inkscape:object-nodes="true"
     inkscape:snap-center="true"
     inkscape:guide-bbox="true"
     showborder="false">
    <inkscape:grid
       type="xygrid"
       id="grid4063" />
    <sodipodi:guide
       position="1.1650391e-05,47.999996"
       orientation="4,0"
       id="guide4146" />
    <sodipodi:guide
       position="1.1650391e-05,43.999996"
       orientation="0,48"
       id="guide4148" />
    <sodipodi:guide
       position="48.000012,43.999996"
       orientation="-4,0"
       id="guide4150" />
    <sodipodi:guide
       position="48.000012,47.999996"
       orientation="0,-48"
       id="guide4152" />
    <sodipodi:guide
       position="1.1650391e-05,4.0000264"
       orientation="4,0"
       id="guide4154" />
    <sodipodi:guide
       position="1.1650391e-05,2.6367188e-05"
       orientation="0,48"
       id="guide4156" />
    <sodipodi:guide
       position="48.000012,2.6367188e-05"
       orientation="-4,0"
       id="guide4158" />
    <sodipodi:guide
       position="48.000012,4.0000264"
       orientation="0,-48"
       id="guide4160" />
    <sodipodi:guide
       position="48.000012,48.000026"
       orientation="0,-4"
       id="guide4162" />
    <sodipodi:guide
       position="44.000012,48.000026"
       orientation="48,0"
       id="guide4164" />
    <sodipodi:guide
       position="44.000012,2.6367188e-05"
       orientation="0,4"
       id="guide4166" />
    <sodipodi:guide
       position="48.000012,2.6367188e-05"
       orientation="-48,0"
       id="guide4168" />
    <sodipodi:guide
       position="4.0000422,48.000026"
       orientation="0,-4"
       id="guide4170" />
    <sodipodi:guide
       position="4.2167969e-05,48.000026"
       orientation="48,0"
       id="guide4172" />
    <sodipodi:guide
       position="4.2167969e-05,2.6367188e-05"
       orientation="0,4"
       id="guide4174" />
    <sodipodi:guide
       position="4.0000422,43.999996"
       orientation="39.999969,0"
       id="guide4175" />
    <sodipodi:guide
       position="4.0000422,4.0000264"
       orientation="0,20"
       id="guide4177" />
    <sodipodi:guide
       position="24.000042,4.0000264"
       orientation="-39.999969,0"
       id="guide4179" />
    <sodipodi:guide
       position="24.000042,43.999996"
       orientation="0,-20"
       id="guide4181" />
    <sodipodi:guide
       position="4.0000422,23.999843"
       orientation="20,0"
       id="guide4185" />
    <sodipodi:guide
       position="44.000012,3.9998433"
       orientation="-20,0"
       id="guide4189" />
    <sodipodi:guide
       position="44.000012,23.999843"
       orientation="0,-39.999969"
       id="guide4191" />
    <sodipodi:guide
       position="-5.3201604,51.964357"
       orientation="0,1"
       id="guide4537" />
  </sodipodi:namedview>
  <metadata
     id="metadata5458">
    <rdf:RDF>
      <cc:Work
         rdf:about="">
        <dc:format>image/svg+xml</dc:format>
        <dc:type
           rdf:resource="http://purl.org/dc/dcmitype/StillImage" />
        <dc:title></dc:title>
      </cc:Work>
    </rdf:RDF>
  </metadata>
  <g
     inkscape:label="Capa 1"
     inkscape:groupmode="layer"
     id="layer1"
     transform="translate(-384.57143,-499.798)">
    <g
       id="g4471"
       transform="matrix(1.0931221,0,0,1.0931221,33.230366,-50.59505)">
      <g
         inkscape:label="Capa 1"
         id="layer1-39"
         transform="matrix(1.5444819,0,0,1.5444819,-275.38426,-295.80854)" />
      <g
         id="g4322"
         transform="matrix(1.0320907,0,0,1.0320907,-11.164043,-16.90606)">
        <g
           style="stroke:none"
           transform="matrix(0.98381885,0,0,0.98381885,5.5651187,8.3948576)"
           id="g4320">
          <g
             id="layer1-3"
             inkscape:label="Capa 1"
             transform="matrix(1.5444819,0,0,1.5444819,-275.17538,-295.73877)"
             style="stroke:none;stroke-width:1.29989684;stroke-miterlimit:4;stroke-dasharray:none;stroke-opacity:1">
            <circle
               r="13.999958"
               cy="531.79791"
               cx="400.57138"
               id="path3377"
               style="opacity:1;fill:url(#linearGradient4181);fill-opacity:1;stroke:none;stroke-width:0.94059104;stroke-miterlimit:4;stroke-dasharray:none;stroke-dashoffset:0;stroke-opacity:1" />
            <circle
               style="opacity:1;fill:url(#linearGradient3426);fill-opacity:1;stroke:none;stroke-width:1.29989684;stroke-miterlimit:4;stroke-dasharray:none;stroke-dashoffset:0;stroke-opacity:1"
               id="ellipse4233"
               cx="400.57138"
               cy="531.79791"
               r="0" />
          </g>
        </g>
      </g>
      <g
         transform="matrix(1.8296216,0,0,1.8296216,-273.21639,-472.34544)"
         id="layer1-4"
         inkscape:label="Capa 1"
         style="fill:#ffffff;fill-opacity:0.84942085">
        <g
           transform="translate(-0.99999631,0.99999918)"
           id="g4147"
           style="fill:#ffffff;fill-opacity:0.84942085">
          <g
             id="g3"
             transform="matrix(0.03923348,0,0,0.03923348,330.00001,536.3622)"
             style="fill:#ffffff;fill-opacity:0.84942085">
            <path
               d="M 353.985,203.905 C 389.13,182.91 401.034,137.526 380.493,101.951 359.953,66.376 314.699,53.994 278.946,73.934 278.336,33.001 244.985,0 203.907,0 162.828,0 129.476,33.001 128.868,73.937 93.114,53.997 47.858,66.38 27.319,101.957 6.78,137.531 18.683,182.915 53.83,203.908 18.684,224.903 6.78,270.287 27.32,305.862 c 20.54,35.576 65.796,47.958 101.55,28.017 0.607,40.936 33.96,73.938 75.039,73.936 41.08,0 74.43,-33.002 75.038,-73.936 35.754,19.939 81.011,7.557 101.548,-28.021 20.54,-35.576 8.635,-80.96 -26.51,-101.953 z M 203.907,272.65 c -37.966,0 -68.744,-30.777 -68.744,-68.744 0,-37.967 30.778,-68.744 68.744,-68.744 37.965,0 68.744,30.777 68.744,68.744 0,37.967 -30.778,68.744 -68.744,68.744 z"
               id="path5"
               inkscape:connector-curvature="0"
               style="fill:#ffffff;fill-opacity:0.84942085" />
          </g>
          <circle
             style="opacity:1;fill:#ffffff;fill-opacity:0.84942085;fill-rule:evenodd;stroke:none;stroke-width:0.94594592;stroke-linecap:square;stroke-linejoin:miter;stroke-miterlimit:4;stroke-dasharray:none;stroke-dashoffset:0;stroke-opacity:1"
             id="path4154"
             cx="338"
             cy="544.36218"
             r="1.5" />
        </g>
      </g>
    </g>
  </g>
</svg>
